svg/invoice_text_send.svg

<svg xmlns="http://www.w3.org/2000/svg" viewBox="0 0 24 24"><path d="M3 3v19l3-2 3 2 3-2v-7H7v-2h7.47L21 14.26V3zm14 6H7V7h10zm-3 14v-4l4-1-4-1v-4l10 5z"/></svg>

<svg xmlns="http://www.w3.org/2000/svg" id="mdi-invoice-text-send" viewBox="0 0 24 24"><path d="M3 3V22L6 20L9 22L12 20V13H7V11H14.47L21 14.26V3H3M17 9H7V7H17V9M14 23V19L18 18L14 17V13L24 18L14 23Z" /></svg>
